file-lock-open-outline.svg

<svg fill="currentColor" viewBox="0 0 24 24"><path d="M22 18.3v3.5c0 .6-.6 1.2-1.3 1.2h-5.5c-.6 0-1.2-.6-1.2-1.3v-3.5c0-.6.6-1.2 1.2-1.2v-2.5c0-1.4 1.4-2.5 2.8-2.5s2.8 1.1 2.8 2.5v.5h-1.3v-.5c0-.8-.7-1.3-1.5-1.3s-1.5.5-1.5 1.3V17h4.3c.6 0 1.2.6 1.2 1.3M6 2c-1.1 0-2 .9-2 2v16c0 1.1.9 2 2 2h6v-2H6V4h7v5h5v1c.7 0 1.4.2 2 .4V8l-6-6z"/></svg>

<svg  viewBox="0 0 24 24" fill="currentColor"><path  d="M22 18.3V21.8C22 22.4 21.4 23 20.7 23H15.2C14.6 23 14 22.4 14 21.7V18.2C14 17.6 14.6 17 15.2 17V14.5C15.2 13.1 16.6 12 18 12S20.8 13.1 20.8 14.5V15H19.5V14.5C19.5 13.7 18.8 13.2 18 13.2S16.5 13.7 16.5 14.5V17H20.8C21.4 17 22 17.6 22 18.3M6 2C4.9 2 4 2.9 4 4V20C4 21.1 4.9 22 6 22H12V20H6V4H13V9H18V10C18.7 10 19.4 10.2 20 10.4V8L14 2H6Z"/></svg>
